build/logo/GithubSolid.svg

<svg xmlns="http://www.w3.org/2000/svg" fill="none" viewBox="0 0 24 24" focusable="false"><path d="M0 0H24V24H0z"/><path fill="#74767B" fill-rule="evenodd" d="M12.0083 2C6.47396 2 2 6.58331 2 12.2535C2 16.786 4.86662 20.6226 8.84338 21.9805C9.34058 22.0826 9.5227 21.7599 9.5227 21.4885C9.5227 21.2508 9.50631 20.436 9.50631 19.587C6.72225 20.1983 6.14249 18.3647 6.14249 18.3647C5.69508 17.1764 5.03215 16.871 5.03215 16.871C4.12092 16.2429 5.09852 16.2429 5.09852 16.2429C6.1093 16.3108 6.63969 17.2954 6.63969 17.2954C7.53432 18.857 8.97592 18.4158 9.55588 18.1441C9.63865 17.482 9.90394 17.0237 10.1856 16.7691C7.96514 16.5314 5.62891 15.6487 5.62891 11.7102C5.62891 10.5898 6.02634 9.67309 6.65608 8.96018C6.55672 8.7056 6.20866 7.65289 6.75564 6.24394C6.75564 6.24394 7.60069 5.97228 9.5061 7.29644C10.3219 7.07199 11.1632 6.95782 12.0083 6.95685C12.8533 6.95685 13.7148 7.07581 14.5102 7.29644C16.4159 5.97228 17.2609 6.24394 17.2609 6.24394C17.8079 7.65289 17.4596 8.7056 17.3603 8.96018C18.0066 9.67309 18.3876 10.5898 18.3876 11.7102C18.3876 15.6487 16.0514 16.5143 13.8143 16.7691C14.179 17.0916 14.4936 17.7026 14.4936 18.6703C14.4936 20.0453 14.4773 21.1489 14.4773 21.4883C14.4773 21.7599 14.6596 22.0826 15.1566 21.9808C19.1333 20.6224 22 16.786 22 12.2535C22.0163 6.58331 17.526 2 12.0083 2Z"/></svg>

<svg xmlns="http://www.w3.org/2000/svg" fill="none" viewBox="0 0 24 24" focusable="false"><path fill="#74767B" fill-rule="evenodd" d="M12 2C6.47 2 2 6.58 2 12.25c0 4.53 2.86 8.37 6.84 9.73.5.1.68-.23.68-.5 0-.23-.02-1.05-.02-1.9-2.78.61-3.36-1.22-3.36-1.22-.45-1.19-1.11-1.49-1.11-1.49-.91-.63.06-.63.06-.63 1.01.07 1.54 1.05 1.54 1.05.9 1.56 2.34 1.12 2.92.85.08-.66.35-1.12.63-1.38-2.22-.23-4.56-1.12-4.56-5.05 0-1.13.4-2.04 1.03-2.75-.1-.26-.45-1.31.1-2.72 0 0 .85-.27 2.75 1.05.82-.22 1.66-.34 2.5-.34.85 0 1.71.12 2.51.34 1.9-1.32 2.75-1.05 2.75-1.05.54 1.41.19 2.46.1 2.72.64.71 1.02 1.62 1.02 2.75 0 3.93-2.33 4.8-4.57 5.05.36.33.68.94.68 1.91 0 1.37-.02 2.47-.02 2.81 0 .27.18.6.68.5 3.98-1.36 6.85-5.2 6.85-9.73C22.01 6.58 17.52 2 12 2"/></svg>
